X:1
T:Paidushko horo
T:Djinovsko horo
R:paidushko horo
H:The tune is mislabelled on the Lunasa album. It's not a djinovsko horo
H:(which is in 6/8 time), but a paidushko horo (pajdusko oro in Macedonia).
H:See also #3
D:Lunasa: The Kinnitty Sessions
Z:id:hn-paidushkohoro-1
M:5/8
L:1/8
Q:2/8=180
K:G
G |: BG d2G | BG c2G | cB A2G | AG B2G |
BG d2G | BG c2G | cB A2G |1 AE A2G :|2 AE A2E ||
|: cB A2G | FG A2E | cB A2G | BG dGG |
cB A2G | FG A2E | cB A2G |1 AE A2E :|2 AE A2B ||
|: cd cBA | BG A2G | BG A2G | GA B2G |
cd cBA | BG A2G | BG A2G | GD G2G :|
|: BG A2G | GA B2G | BG A2G | GG DGG |
BG A2G | GA B2G | BG A2G | GD G2G :|

